src/actions/24/document-swap.svg

<svg xmlns="http://www.w3.org/2000/svg" viewBox="0 0 24 24">
  <defs id="defs3051">
    <style type="text/css" id="current-color-scheme">
      .ColorScheme-Text {
        color:#2e3440;
      }
      </style>
  </defs>
 <path 
    style="fill:currentColor;fill-opacity:1;stroke:none" 
	d="M 4 2.9980469 L 4 3 L 8.2929688 3 L 10 3 L 10 4 L 17 4 L 17 6 L 18 6 L 18 2.9980469 L 17 2.9980469 L 5 2.9980469 L 4 2.9980469 z M 8.2929688 3 L 5.5 5.7929688 L 4.7929688 6.5 L 5.5 7.2070312 L 8.2929688 10 L 9 9.2929688 L 6.7070312 7 L 12 7 L 12 6 L 11 6 L 10 6 L 6.7070312 6 L 9 3.7070312 L 8.2929688 3 z M 13.707031 6 L 13 6.7070312 L 15.292969 9 L 10 9 L 10 10 L 11 10 L 12 10 L 15.292969 10 L 13 12.292969 L 13.707031 13 L 16.5 10.207031 L 17.207031 9.5 L 16.5 8.7929688 L 13.707031 6 z M 4 10 L 4 19 L 5 19 L 13 19 L 14 19 L 14 18.990234 L 14.007812 19 L 18 15.007812 L 18 14.998047 L 18 13.591797 L 18 13 L 17 13 L 17 14 L 13 14 L 13 15 L 13 18 L 5 18 L 5 10 L 4 10 z "
    class="ColorScheme-Text"
     transform="translate(1,1)"
    />
</svg>

<svg viewBox="0 0 24 24" xmlns="http://www.w3.org/2000/svg">
 <defs>
  <style type="text/css">.ColorScheme-Text {
        color:#2e3440;
      }</style>
 </defs>
 <path class="ColorScheme-Text" transform="translate(1,1)" d="m4 2.998v0.0019531h4.293 1.707v1h7v2h1v-3.002h-1-12-1zm4.293 0.0019531-3.5 3.5 3.5 3.5 0.70703-0.70703-2.293-2.293h5.293v-1h-1-1-3.293l2.293-2.293-0.70703-0.70703zm5.4141 3-0.70703 0.70703 2.293 2.293h-5.293v1h1 1 3.293l-2.293 2.293 0.70703 0.70703 3.5-3.5-3.5-3.5zm-9.707 4v9h1 8 1v-0.009766l0.007812 0.009766 3.9922-3.9922v-0.009765-1.4062-0.5918h-1v1h-4v1 3h-8v-8h-1z" fill="currentColor"/>
</svg>
